!!!COM: Marcello, Benedetto
!!!OPR: Concerto in 
!!!OTL:
!!!ONM: Opus 1, No. 8
!!!OMV: 3
!!!SCT:
!!!YOR: RISM M 443, I Vnm (Biblioteca Nazionale Marciana)
!!!EED: Frances Bennion
!!!ENC: Frances Bennion
!!!CDT: 1686/1/8/-1739/7/24/
!!!OCY: Italia
!!!YEC: Copyright (c) 1994, 2000 Center for Computer Assisted Research in the Humanities
!!!YEM: Rights to all derivative editions reserved.
!!!YEM: Refer to licensing agreement for further details.
!!!YEN: United States of America
**kern	**kern	**dynam	**kern	**dynam	**kern	**kern	**kern
*I:Violino Principale	*I:Violino Primo	*I:Violino Primo	*I:Violino Secondo	*I:Violino Secondo	*I:Alto Viola	*I:Violoncello	*I:Organo
*clefG2	*clefG2	*	*clefG2	*	*clefC3	*clefF4	*clefF4
*k[b-]	*k[b-]	*	*k[b-]	*	*k[b-]	*k[b-]	*k[b-]
*F:	*F:	*	*F:	*	*F:	*F:	*F:
*M3/8	*M3/8	*	*M3/8	*	*M3/8	*M3/8	*M3/8
! Presto e spiritoso	!	!	!	!	!	!	!
=1-	=1-	=1-	=1-	=1-	=1-	=1-	=1-
4.r	8r	.	4.r	.	4.r	4.r	4.r
.	16f/LL	.	.	.	.	.	.
.	16g/	.	.	.	.	.	.
.	16a/	.	.	.	.	.	.
.	16b-/JJ	.	.	.	.	.	.
=2	=2	=2	=2	=2	=2	=2	=2
4.r	8cc\L	.	4.r	.	4.r	4.r	4.r
.	8f\	.	.	.	.	.	.
.	8ff\J	.	.	.	.	.	.
=3	=3	=3	=3	=3	=3	=3	=3
4.r	8ee\	.	4.r	.	4.r	4.r	4.r
.	4dd\	.	.	.	.	.	.
=4	=4	=4	=4	=4	=4	=4	=4
4.r	4cc\	.	4.r	.	4.r	4.r	4.r
.	8b-\	.	.	.	.	.	.
=5	=5	=5	=5	=5	=5	=5	=5
4.r	8a/	.	4.r	.	4.r	4.r	4.r
.	4g/	.	.	.	.	.	.
=6	=6	=6	=6	=6	=6	=6	=6
4.r	16f/LL	.	4.r	.	4.r	4.r	4.r
.	16e/	.	.	.	.	.	.
.	16f/	.	.	.	.	.	.
.	16g/	.	.	.	.	.	.
.	16a/	.	.	.	.	.	.
.	16b-/JJ	.	.	.	.	.	.
=7	=7	=7	=7	=7	=7	=7	=7
4.r	16cc\LL	.	4.r	.	4.r	4.r	4.r
.	16dd\J	.	.	.	.	.	.
.	8.bn\	.	.	.	.	.	.
.	16cc\Jk	.	.	.	.	.	.
=8	=8	=8	=8	=8	=8	=8	=8
4.r	4cc\	.	8r	.	4e\	4C/	4C/
.	.	.	16c/LL	.	.	.	.
.	.	.	16d/	.	.	.	.
.	8r	.	16e/	.	8r	8D\	8D\
.	.	.	16f/JJ	.	.	.	.
=9	=9	=9	=9	=9	=9	=9	=9
4.r	8cc\	.	8g/L	.	8c\	4E\	4E\
.	8r	.	8c/	.	8r	.	.
.	8r	.	8cc/J	.	8r	8F\	8F\
=10	=10	=10	=10	=10	=10	=10	=10
4.r	8dd\	.	8bn\	.	8g\	4G\	4G\
.	8r	.	4a/	.	8r	.	.
.	8r	.	.	.	8r	8F\	8F\
=11	=11	=11	=11	=11	=11	=11	=11
4.r	8cc\	.	4g/	.	8g\	4E\	4E\
.	8r	.	.	.	8r	.	.
.	8r	.	8f/	.	8r	8D\	8D\
=12	=12	=12	=12	=12	=12	=12	=12
4.r	8g/	.	8e/	.	8g\	4C/	4C/
.	8r	.	4d/	.	8r	.	.
.	8r	.	.	.	8r	8BB-/	8BB-/
=13	=13	=13	=13	=13	=13	=13	=13
4.r	4f/	.	16c/LL	.	8c\	4AA/	4AA/
.	.	.	16B-/	.	.	.	.
.	.	.	16c/	.	8r	.	.
.	.	.	16c/	.	.	.	.
.	8b-\	.	16d/	.	8r	8GG/	8GG/
.	.	.	16e/JJ	.	.	.	.
=14	=14	=14	=14	=14	=14	=14	=14
4.r	8a/	.	16f/LL	.	8c\	8FF/L	8FF/L
.	.	.	16g/JJ	.	.	.	.
.	4g/	.	8.e/L	.	8r	8C/	8C/
.	.	.	.	.	8r	8CC/J	8CC/J
.	.	.	16f/Jk	.	.	.	.
=15	=15	=15	=15	=15	=15	=15	=15
8r	8a/	.	8f/	.	8c\	8FF\L	4FF/
16f/LL	8r	.	8r	.	8r	8F\	.
16g/	.	.	.	.	.	.	.
16a/	8r	.	8r	.	8r	8G\J	8r
16b-/JJ	.	.	.	.	.	.	.
=16	=16	=16	=16	=16	=16	=16	=16
8cc\L	4.r	.	4.r	.	4.r	4A\	4.r
8f\	.	.	.	.	.	.	.
8ff\J	.	.	.	.	.	8B-\	.
=17	=17	=17	=17	=17	=17	=17	=17
8ee\	4.r	.	4.r	.	4.r	4c\	4.r
4dd\	.	.	.	.	.	.	.
.	.	.	.	.	.	8B-\	.
=18	=18	=18	=18	=18	=18	=18	=18
4cc\	4.r	.	4.r	.	4.r	4A\	4.r
8b-\	.	.	.	.	.	8G\	.
=19	=19	=19	=19	=19	=19	=19	=19
8a/	4.r	.	4.r	.	4.r	4F\	4.r
4g/	.	.	.	.	.	.	.
.	.	.	.	.	.	8E\	.
=20	=20	=20	=20	=20	=20	=20	=20
16f/LL	4.r	.	4.r	.	4.r	4D\	4.r
16e/	.	.	.	.	.	.	.
16f/	.	.	.	.	.	.	.
16g/	.	.	.	.	.	.	.
16a/	.	.	.	.	.	8r	.
16b-/JJ	.	.	.	.	.	.	.
=21	=21	=21	=21	=21	=21	=21	=21
16cc\LL	4.r	.	4.r	.	4.r	8C/L	4.r
16dd\JJ	.	.	.	.	.	.	.
8.bn\L	.	.	.	.	.	8G/	.
.	.	.	.	.	.	8GG/J	.
16cc\Jk	.	.	.	.	.	.	.
=22	=22	=22	=22	=22	=22	=22	=22
4cc\	8r	.	8cc\	.	8e\	4C/	4C/
.	16cc\LL	.	8r	.	8r	.	.
.	16dd\	.	.	.	.	.	.
8r	16ee\	.	8r	.	8r	8D\	8D\
.	16ff\JJ	.	.	.	.	.	.
=23	=23	=23	=23	=23	=23	=23	=23
4.r	8gg\L	.	8cc\	.	8c\	4E\	4E\
.	8cc\	.	8r	.	8r	.	.
.	8ccc\J	.	8r	.	8r	8F\	8F\
=24	=24	=24	=24	=24	=24	=24	=24
4.r	8bbn\	.	8dd\	.	8g\	4G\	4G\
.	4aa\	.	8r	.	8r	.	.
.	.	.	8r	.	8r	8F\	8F\
=25	=25	=25	=25	=25	=25	=25	=25
4.r	4gg\	.	8cc\	.	8g\	4E\	4E\
.	.	.	8r	.	8r	.	.
.	8ff\	.	8r	.	8r	8D\	8D\
=26	=26	=26	=26	=26	=26	=26	=26
4.r	8ee\	.	8g/	.	8g\	4C/	4C/
.	4dd\	.	8r	.	8r	.	.
.	.	.	8r	.	8r	8BB-/	8BB-/
=27	=27	=27	=27	=27	=27	=27	=27
4.r	16cc\LL	.	4f/	.	8c\	4AA/	4AA/
.	16b-\	.	.	.	.	.	.
.	16cc\	.	.	.	8r	.	.
.	16cc\	.	.	.	.	.	.
.	16dd\	.	8b-\	.	8r	8GG/	8GG/
.	16ee\JJ	.	.	.	.	.	.
=28	=28	=28	=28	=28	=28	=28	=28
4.r	16ff\LL	.	8a/	.	8c\	8FF/L	8FF/L
.	16gg\J	.	.	.	.	.	.
.	8.ee\	.	4g/	.	8r	8C/	8C/
.	.	.	.	.	8r	8CC/J	8CC/J
.	16ff\Jk	.	.	.	.	.	.
=29	=29	=29	=29	=29	=29	=29	=29
8r	4ff\	.	4a/	.	8c\	4FF/	4FF/
16f/LL	.	.	.	.	8r	.	.
16g/	.	.	.	.	.	.	.
16a/	8r	.	8r	.	8r	8r	8r
16b-/JJ	.	.	.	.	.	.	.
=30	=30	=30	=30	=30	=30	=30	=30
8cc\L	4.r	.	4.r	.	4.r	8F\	4F\
8f\	.	.	.	.	.	8r	.
8ff\J	.	.	.	.	.	8r	8r
=31	=31	=31	=31	=31	=31	=31	=31
4ee\	8r	.	8g/	.	8c\	8c\	8C/
.	16c/LL	.	8r	.	8r	8r	8r
.	16d/	.	.	.	.	.	.
8r	16e/	.	8r	.	8r	8r	8r
.	16f/JJ	.	.	.	.	.	.
=32	=32	=32	=32	=32	=32	=32	=32
4.r	8g/L	.	8e/	.	8c\	8C/	8C/
.	8c/	.	8r	.	8r	8r	8r
.	8cc/J	.	8r	.	8r	8r	8r
=33	=33	=33	=33	=33	=33	=33	=33
8r	8a/	.	8f/	.	8c\	8F\	8F\
16f/LL	8r	.	8r	.	8r	8r	8r
16g/	.	.	.	.	.	.	.
16a/	8r	.	8r	.	8r	8r	8r
16b-/JJ	.	.	.	.	.	.	.
=34	=34	=34	=34	=34	=34	=34	=34
8cc\L	4.r	.	4.r	.	4.r	8A\	4.r
8f\	.	.	.	.	.	8r	.
8ff\J	.	.	.	.	.	8r	.
=35	=35	=35	=35	=35	=35	=35	=35
8dd\	4.r	.	4.r	.	4.r	8B-\	4.r
16g/LL	.	.	.	.	.	8r	.
16a/	.	.	.	.	.	.	.
16b-/	.	.	.	.	.	8r	.
16cc/JJ	.	.	.	.	.	.	.
=36	=36	=36	=36	=36	=36	=36	=36
8dd\L	4.r	.	4.r	.	4.r	8Bn\	4.r
8g\	.	.	.	.	.	8r	.
8gg\J	.	.	.	.	.	8r	.
=37	=37	=37	=37	=37	=37	=37	=37
8ee\	4.r	.	4.r	.	4.r	8c\	4.r
16a\LL	.	.	.	.	.	8r	.
16b-\	.	.	.	.	.	.	.
16cc\	.	.	.	.	.	8r	.
16dd\JJ	.	.	.	.	.	.	.
=38	=38	=38	=38	=38	=38	=38	=38
8ee\L	4.r	.	4.r	.	4.r	8c#\	4.r
8a\	.	.	.	.	.	8r	.
8aa\J	.	.	.	.	.	8r	.
=39	=39	=39	=39	=39	=39	=39	=39
8ff\	4.r	.	4.r	.	4.r	8d\	4.r
16b-\LL	.	.	.	.	.	8r	.
16cc\	.	.	.	.	.	.	.
16dd\	.	.	.	.	.	8r	.
16ee\JJ	.	.	.	.	.	.	.
=40	=40	=40	=40	=40	=40	=40	=40
8ff\L	4.r	.	4.r	.	4.r	8D\	4.r
8b-\	.	.	.	.	.	8r	.
8bb-\J	.	.	.	.	.	8r	.
=41	=41	=41	=41	=41	=41	=41	=41
8gg\	4.r	.	4.r	.	4.r	8E\	4.r
16cc\LL	.	.	.	.	.	8r	.
16dd\	.	.	.	.	.	.	.
16ee\	.	.	.	.	.	8r	.
16ff\JJ	.	.	.	.	.	.	.
=42	=42	=42	=42	=42	=42	=42	=42
8gg\L	4.r	.	4.r	.	4.r	8C/	4.r
8cc\	.	.	.	.	.	8r	.
8ccc\J	.	.	.	.	.	8r	.
=43	=43	=43	=43	=43	=43	=43	=43
8aa\	4.r	.	4.r	.	4.r	8F\	4.r
16bb-\LL	.	.	.	.	.	8r	.
16aa\	.	.	.	.	.	.	.
16gg\	.	.	.	.	.	8r	.
16ff\JJ	.	.	.	.	.	.	.
=44	=44	=44	=44	=44	=44	=44	=44
8ee\	4.r	.	4.r	.	4.r	8C/	4.r
16gg\LL	.	.	.	.	.	8r	.
16ff\	.	.	.	.	.	.	.
16ee\	.	.	.	.	.	8r	.
16dd\JJ	.	.	.	.	.	.	.
=45	=45	=45	=45	=45	=45	=45	=45
8cc\	4.r	.	4.r	.	4.r	8C/	4.r
16b-/LL	.	.	.	.	.	8r	.
16a/	.	.	.	.	.	.	.
16g/	.	.	.	.	.	8r	.
16f/JJ	.	.	.	.	.	.	.
=46	=46	=46	=46	=46	=46	=46	=46
8en/	4.r	.	4.r	.	4.r	8C/	4.r
16g/LL	.	.	.	.	.	8r	.
16f/	.	.	.	.	.	.	.
16e/	.	.	.	.	.	8r	.
16d/JJ	.	.	.	.	.	.	.
=47	=47	=47	=47	=47	=47	=47	=47
4c/	4.r	.	4.r	.	4.r	4C/	4.r
8ff\	.	.	.	.	.	8A\	.
=48	=48	=48	=48	=48	=48	=48	=48
8ff\	4.r	.	4.r	.	4.r	8B-\L	4.r
4ee\	.	.	.	.	.	8c\	.
.	.	.	.	.	.	8C\J	.
=49	=49	=49	=49	=49	=49	=49	=49
4ff\	8r	.	4.r	.	4.r	8F\	4.r
.	16f/LL	.	.	.	.	8r	.
.	16g/	.	.	.	.	.	.
8r	16a/	.	.	.	.	8r	.
.	16b-/JJ	.	.	.	.	.	.
=50	=50	=50	=50	=50	=50	=50	=50
4.r	8cc\L	.	8a/	.	8f\	8F\	8F\
.	8f\	.	8r	.	8r	8r	8r
.	8ff\J	.	8r	.	8r	8r	8r
=51	=51	=51	=51	=51	=51	=51	=51
4.r	8dd\	.	8b-\	.	8f\	8B-\	8B-\
.	16g/LL	.	8r	.	8r	8r	8r
.	16a/	.	.	.	.	.	.
.	16b-/	.	8r	.	8r	8r	8r
.	16cc/JJ	.	.	.	.	.	.
=52	=52	=52	=52	=52	=52	=52	=52
4.r	8dd\L	.	8bn\	.	8g\	8G\	8G\
.	8g\	.	8r	.	8r	8r	8r
.	8gg\J	.	8r	.	8r	8r	8r
=53	=53	=53	=53	=53	=53	=53	=53
4.r	8ee\	.	8cc\	.	8g\	8c\	8c\
.	16a\LL	.	8r	.	8r	8r	8r
.	16b-\	.	.	.	.	.	.
.	16cc\	.	8r	.	8r	8r	8r
.	16dd\JJ	.	.	.	.	.	.
=54	=54	=54	=54	=54	=54	=54	=54
4.r	8ee\L	.	8cc#\	.	8a\	8A\	8A\
.	8a\	.	8r	.	8r	8r	8r
.	8aa\J	.	8r	.	8r	8r	8r
=55	=55	=55	=55	=55	=55	=55	=55
4.r	8ff\	.	8dd\	.	8a\	8d\	8d\
.	16b-\LL	.	8r	.	8r	8r	8r
.	16cc\	.	.	.	.	.	.
.	16dd\	.	8r	.	8r	8r	8r
.	16ee\JJ	.	.	.	.	.	.
=56	=56	=56	=56	=56	=56	=56	=56
4.r	8ff\L	.	8dd\	.	8b-\	8B-\	8B-\
.	8b-\	.	8r	.	8r	8r	8r
.	8bb-\J	.	8r	.	8r	8r	8r
=57	=57	=57	=57	=57	=57	=57	=57
4.r	8gg\	.	8ee\	.	8b-\	8E\	8E\
.	16cc\LL	.	8r	.	8r	8r	8r
.	16dd\	.	.	.	.	.	.
.	16ee\	.	8r	.	8r	8r	8r
.	16ff\JJ	.	.	.	.	.	.
=58	=58	=58	=58	=58	=58	=58	=58
4.r	8gg\L	.	8ee\	.	8cc\	8C/	8C/
.	8cc\	.	8r	.	8r	8r	8r
.	8ccc\J	.	8r	.	8r	8r	8r
=59	=59	=59	=59	=59	=59	=59	=59
4.r	8aa\L	.	8ff\L	.	8cc\	8F\	8F\
.	16bb-\L	.	16gg\L	.	8r	8r	8r
.	16aa\	.	16ff\	.	.	.	.
.	16gg\	.	16ee\	.	8r	8r	8r
.	16ff\JJ	.	16dd\JJ	.	.	.	.
=60	=60	=60	=60	=60	=60	=60	=60
4.r	8ee\L	.	8cc/L	.	8g\	8C/	8c\
.	16gg\L	.	16b-/L	.	8r	8r	8r
.	16ff\	.	16a/	.	.	.	.
.	16ee\	.	16g/	.	8r	8r	8r
.	16dd\JJ	.	16f/JJ	.	.	.	.
=61	=61	=61	=61	=61	=61	=61	=61
4.r	8cc/L	.	8e/L	.	8g\	8C/	8C/
.	16b-/L	.	16dd/L	.	8r	8r	8r
.	16a/	.	16cc/	.	.	.	.
.	16g/	.	16b-/	.	8r	8r	8r
.	16f/JJ	.	16a/JJ	.	.	.	.
=62	=62	=62	=62	=62	=62	=62	=62
4.r	8e/L	.	8g/L	.	8g\	8C/	8C/
.	16g/L	.	16b-/L	.	8r	8r	8r
.	16f/	.	16a/	.	.	.	.
.	16e/	.	16g/	.	8r	8r	8r
.	16d/JJ	.	16f/JJ	.	.	.	.
=63	=63	=63	=63	=63	=63	=63	=63
4.r	4c/	.	4e/	.	4g\	4C/	4C/
.	8ff\	.	8cc\	.	8f\	8AA/	8AA/
=64	=64	=64	=64	=64	=64	=64	=64
4.r	8ff\	.	8dd\	.	8f\	8BB-/	8BB-/L
.	4ee\	.	4g/	.	4c\	4C/	8C/
.	.	.	.	.	.	.	8CC/J
=65	=65	=65	=65	=65	=65	=65	=65
8r	4ff\	.	4a/	.	4c\	4F\	4FF/
16f/LL	.	.	.	.	.	.	.
16g/	.	.	.	.	.	.	.
16a/	8r	.	8r	.	8r	8r	8r
16b-/JJ	.	.	.	.	.	.	.
=66	=66	=66	=66	=66	=66	=66	=66
8cc\L	4.r	.	4.r	.	4.r	4.r	4.r
8f\	.	.	.	.	.	.	.
8ff\J	.	.	.	.	.	.	.
=67	=67	=67	=67	=67	=67	=67	=67
8ee\	8r	.	4.r	.	4.r	4.r	4.r
4dd\	16d/LL	.	.	.	.	.	.
.	16e/	.	.	.	.	.	.
.	16f/	.	.	.	.	.	.
.	16g/JJ	.	.	.	.	.	.
=68	=68	=68	=68	=68	=68	=68	=68
8cc#\L	8a/L	.	4.r	.	4.r	4.r	4.r
8a\	8d/	.	.	.	.	.	.
8ff\J	8dd/J	.	.	.	.	.	.
=69	=69	=69	=69	=69	=69	=69	=69
8ee-\	8cc\	.	8r	.	4.r	4.r	4.r
4dd\	4b-\	.	16B-/LL	.	.	.	.
.	.	.	16c/	.	.	.	.
.	.	.	16d/	.	.	.	.
.	.	.	16e/JJ	.	.	.	.
=70	=70	=70	=70	=70	=70	=70	=70
8cc\L	8a/L	.	8f/L	.	4.r	4.r	4.r
8b-\	8f/	.	8B-/	.	.	.	.
8ff\J	8dd/J	.	8b-/J	.	.	.	.
=71	=71	=71	=71	=71	=71	=71	=71
8gg\L	8cc\	.	8a/	.	8r	4.r	4.r
8dd\	4b-\	.	4g/	.	16G/LL	.	.
.	.	.	.	.	16A/	.	.
8ee-\J	.	.	.	.	16B-/	.	.
.	.	.	.	.	16c/JJ	.	.
=72	=72	=72	=72	=72	=72	=72	=72
4dd\	8a\L	.	8f#/L	.	8d\L	4.r	4.r
.	8g\	.	8d/	.	8G\	.	.
8r	8dd\J	.	8b-/J	.	8g\J	.	.
=73	=73	=73	=73	=73	=73	=73	=73
4.r	8cc#\L	.	8g/	.	8e\	8r	4.r
.	8a\	.	4fn/	.	4d\	16D\LL	.
.	.	.	.	.	.	16E\	.
.	8b-\J	.	.	.	.	16F\	.
.	.	.	.	.	.	16G\JJ	.
=74	=74	=74	=74	=74	=74	=74	=74
4.r	4a/	.	8e/L	.	8c#\L	8A\L	4.r
.	.	.	8c/	.	8A\	8D\	.
.	8r	.	8a/J	.	8f\J	8d\J	.
=75	=75	=75	=75	=75	=75	=75	=75
4.r	8r	.	4dd\	.	4g\	8B-\	4.r
.	16g/LL	.	.	.	.	4A\	.
.	16a/	.	.	.	.	.	.
.	16b-/	.	8cc\	.	8a\	.	.
.	16cc/JJ	.	.	.	.	.	.
=76	=76	=76	=76	=76	=76	=76	=76
4.r	8dd\L	.	4b-\	.	4d\	4G\	8G\
.	8g\	.	.	.	.	.	8r
.	8gg\J	.	8r	.	8r	8r	8r
=77	=77	=77	=77	=77	=77	=77	=77
4.r	8ee\	.	8r	.	8g\	8C/	8C/
.	8r	.	16c/LL	.	8r	8r	8r
.	.	.	16d/	.	.	.	.
.	8r	.	16e/	.	8r	8r	8r
.	.	.	16f/JJ	.	.	.	.
=78	=78	=78	=78	=78	=78	=78	=78
4.r	8cc\	.	8g/L	.	8e\	8C/	8C/
.	8r	.	8c/	.	8r	8r	8r
.	8r	.	8cc/J	.	8r	8r	8r
=79	=79	=79	=79	=79	=79	=79	=79
4.r	8cc\	.	8a/	.	8f\	8r	8F\
.	8r	.	8r	.	8r	16F\LL	8r
.	.	.	.	.	.	16G\	.
.	8r	.	8r	.	8r	16A\	8r
.	.	.	.	.	.	16B-\JJ	.
=80	=80	=80	=80	=80	=80	=80	=80
4.r	4.r	.	4.r	.	4.r	8c\L	8A\
.	.	.	.	.	.	8F\	8r
.	.	.	.	.	.	8f\J	8r
=81	=81	=81	=81	=81	=81	=81	=81
8r	4.r	.	4.r	.	4.r	8d\	8B-\
16b-\LL	.	.	.	.	.	8r	8r
16cc\	.	.	.	.	.	.	.
16dd\	.	.	.	.	.	8r	8r
16ee\JJ	.	.	.	.	.	.	.
=82	=82	=82	=82	=82	=82	=82	=82
8ff\L	4.r	.	4.r	.	4.r	8B-\	8BB-/
8b-\	.	.	.	.	.	8r	8r
8bb-\J	.	.	.	.	.	8r	8r
=83	=83	=83	=83	=83	=83	=83	=83
[4.gg\	8r	.	8r	.	8e\	8E\	8E\
.	16bb-\LL	p	16gg\LL	p	8r	8r	8r
.	16aa\	.	16ff\	.	.	.	.
.	16gg\	.	16ee\	.	8r	8r	8r
.	16ff\JJ	.	16dd\JJ	.	.	.	.
=84	=84	=84	=84	=84	=84	=84	=84
!	!	!	!	!	!	!	! **Bnum:._#
4.gg\]	8ee\L	.	8cc#\L	.	8e\	8AA/	8AA/
.	16gg\L	.	16ee\L	.	8r	8r	8r
.	16ff\	.	16dd\	.	.	.	.
.	16ee\	.	16cc#\	.	8r	8r	8r
.	16dd\JJ	.	16b-\JJ	.	.	.	.
=85	=85	=85	=85	=85	=85	=85	=85
[4.aa\	8cc#/L	.	8a/L	.	8e\	8AA/	8AA/
.	16b-/L	.	16g/L	.	8r	8r	8r
.	16a/	.	16f/	.	.	.	.
.	16g/	.	16e/	.	8r	8r	8r
.	16f/JJ	.	16d/JJ	.	.	.	.
=86	=86	=86	=86	=86	=86	=86	=86
4.aa\_	8e/L	.	8c#/L	.	8e\	8AA/	8AA/
.	16g/L	.	16e/L	.	8r	8r	8r
.	16f/	.	16d/	.	.	.	.
.	16e/	.	16c#/	.	8r	8r	8r
.	16d/JJ	.	16B-/JJ	.	.	.	.
=87	=87	=87	=87	=87	=87	=87	=87
4aa\]	4c#/	.	4A/	.	4e\	4AA/	4AA/
8ff\	8d/	.	8d/	.	8d\	8BB-/	8BB-/
=88	=88	=88	=88	=88	=88	=88	=88
8ff\	8d/	.	8d/	.	8b-\	8GG/	4GG/
4ee\	4c#/	.	4c#/	.	4e\	4AA/	.
.	.	.	.	.	.	.	8AA/
=89	=89	=89	=89	=89	=89	=89	=89
4dd\	8d/L	.	4d/	.	8f\	16D\LL	8D\
.	.	.	.	.	.	16C#\	.
.	8dd/	.	.	.	8r	16D\	8r
.	.	.	.	.	.	16E\	.
8r	8d/J	.	8r	.	8r	16F\	8r
.	.	.	.	.	.	16D\JJ	.
=90	=90	=90	=90	=90	=90	=90	=90
4.r	8d/	.	8r	.	8b-\	16G\LL	8G\
.	.	.	.	.	.	16F\	.
.	8r	.	8g/L	f	8r	16G\	8r
.	.	.	.	.	.	16A\	.
.	8r	.	8G/J	.	8r	16B-\	8r
.	.	.	.	.	.	16G\JJ	.
=91	=91	=91	=91	=91	=91	=91	=91
4.r	8r	.	8G/	.	8c\	16E\LL	8E\
.	.	.	.	.	.	16D\	.
.	8ee/L	.	8r	.	8r	16E\	8r
.	.	.	.	.	.	16F\	.
.	8e/J	.	8r	.	8r	16G\	8r
.	.	.	.	.	.	16E\JJ	.
=92	=92	=92	=92	=92	=92	=92	=92
4.r	8e/	.	8r	.	8c\	16A\LL	8A\
.	.	.	.	.	.	16G\	.
.	8r	.	8a/L	.	8r	16A\	8r
.	.	.	.	.	.	16B-\	.
.	8r	.	8A/J	.	8r	16c\	8r
.	.	.	.	.	.	16A\JJ	.
=93	=93	=93	=93	=93	=93	=93	=93
4.r	8r	.	8A/	.	8c\	16F\LL	8F\
.	.	.	.	.	.	16E\	.
.	8ff\L	.	8r	.	8r	16F\	8r
.	.	.	.	.	.	16G\	.
.	8f\J	.	8r	.	8r	16A\	8r
.	.	.	.	.	.	16F\JJ	.
=94	=94	=94	=94	=94	=94	=94	=94
4.r	8f/	.	8r	.	8d\	16B-\LL	8B-\
.	.	.	.	.	.	16A\	.
.	8r	.	8b-/L	.	8r	16B-\	8r
.	.	.	.	.	.	16c\	.
.	8r	.	8B-/J	.	8r	16d\	8r
.	.	.	.	.	.	16B-\JJ	.
=95	=95	=95	=95	=95	=95	=95	=95
4.r	8r	.	8B-/	.	8d\	16G\LL	8G\
.	.	.	.	.	.	16F\	.
.	8gg\L	.	8r	.	8r	16G\	8r
.	.	.	.	.	.	16A\	.
.	8g\J	.	8r	.	8r	16B-\	8r
.	.	.	.	.	.	16G\JJ	.
=96	=96	=96	=96	=96	=96	=96	=96
4.r	4g/	.	4e/	.	4c#\	4A\	4A\
.	8f/	.	8d/	.	8d\	8B-\	8B-\
=97	=97	=97	=97	=97	=97	=97	=97
4.r	8f/	.	8d/	.	8b-\L	8G\L	8G\L
.	4e/	.	4c#/	.	8a\	8A\	8A\
.	.	.	.	.	8A\J	8AA\J	8AA\J
=98	=98	=98	=98	=98	=98	=98	=98
4.r	8r	.	4d/	.	4A/	4D\	4D\
.	16d/LL	.	.	.	.	.	.
.	16e/	.	.	.	.	.	.
.	16f/	.	8r	.	8r	8r	8r
.	16g/JJ	.	.	.	.	.	.
=99	=99	=99	=99	=99	=99	=99	=99
4.r	8a/L	.	4.r	.	4.r	4.r	4.r
.	8d/	.	.	.	.	.	.
.	8dd/J	.	.	.	.	.	.
=100	=100	=100	=100	=100	=100	=100	=100
4.r	8cc\	.	8r	.	4.r	4.r	4.r
.	4b-\	.	16B-/LL	.	.	.	.
.	.	.	16c/	.	.	.	.
.	.	.	16d/	.	.	.	.
.	.	.	16e-/JJ	.	.	.	.
=101	=101	=101	=101	=101	=101	=101	=101
4.r	8a/L	.	8f/L	.	4.r	4.r	4.r
.	8f/	.	8B-/	.	.	.	.
.	8dd/J	.	8b-/J	.	.	.	.
=102	=102	=102	=102	=102	=102	=102	=102
4.r	8cc\	.	8a/	.	8r	4.r	4.r
.	4b-\	.	4g/	.	16G/LL	.	.
.	.	.	.	.	16A/	.	.
.	.	.	.	.	16B-/	.	.
.	.	.	.	.	16c/JJ	.	.
=103	=103	=103	=103	=103	=103	=103	=103
4.r	8a/L	.	8f#/L	.	8d\L	4.r	4.r
.	8b-/	.	8d/	.	8G\	.	.
.	8b-/J	.	8dd/J	.	8g\J	.	.
=104	=104	=104	=104	=104	=104	=104	=104
8r	8g/	.	8cc#\L	.	8e\	4.r	4.r
16dd\LL	4f/	.	8a\	.	4d\	.	.
16ee\	.	.	.	.	.	.	.
16ff\	.	.	8b-\J	.	.	.	.
16gg\JJ	.	.	.	.	.	.	.
=105	=105	=105	=105	=105	=105	=105	=105
8aa\L	8e/L	.	4a/	.	8c#\L	4.r	4.r
8dd\	8f/J	.	.	.	8d\	.	.
8ddd\J	8r	.	8r	.	8b-\J	.	.
=106	=106	=106	=106	=106	=106	=106	=106
8ccc\	4.r	.	4.r	.	8a\	8r	4.r
4bb-\	.	.	.	.	4g\	16BB-/LL	.
.	.	.	.	.	.	16C/	.
.	.	.	.	.	.	16D/	.
.	.	.	.	.	.	16E/JJ	.
=107	=107	=107	=107	=107	=107	=107	=107
4aa\	4.r	.	4.r	.	4f\	8F\L	4.r
.	.	.	.	.	.	8BB-\	.
8gg\	.	.	.	.	8d\	8B-\J	.
=108	=108	=108	=108	=108	=108	=108	=108
8ff\	4.r	.	4.r	.	4d\	8A\L	4.r
4ee\	.	.	.	.	.	8G\	.
.	.	.	.	.	8c#\	8A\J	.
=109	=109	=109	=109	=109	=109	=109	=109
4dd\	8r	.	4.r	.	4d\	8D\	8D\
.	16d/LL	.	.	.	.	8r	8r
.	16e/	.	.	.	.	.	.
8r	16f/	.	.	.	8r	8r	8r
.	16g/JJ	.	.	.	.	.	.
=110	=110	=110	=110	=110	=110	=110	=110
!	!	!	!	!	!	!	! **Bnum:._#
4.r	8a/L	.	8f#/	.	8d\	8D\	8D\
.	8d/	.	8r	.	8r	8r	8r
.	8dd/J	.	8r	.	8r	8r	8r
=111	=111	=111	=111	=111	=111	=111	=111
!	!	!	!	!	!	!	! **Bnum:._n
4.r	8bn/L	.	8g/	.	8d\	8G\	8G\
.	16e/L	.	8r	.	8r	8r	8r
.	16f/	.	.	.	.	.	.
.	16g/	.	8r	.	8r	8r	8r
.	16a/JJ	.	.	.	.	.	.
=112	=112	=112	=112	=112	=112	=112	=112
!	!	!	!	!	!	!	! **Bnum:._#
4.r	8bn/L	.	8g#/	.	8e\	8E\	8E\
.	8e/	.	8r	.	8r	8r	8r
.	8ee/J	.	8r	.	8r	8r	8r
=113	=113	=113	=113	=113	=113	=113	=113
4.r	8cc\	.	8a/	.	8e\	8A\	8A\
.	16f/LL	.	8r	.	8r	8r	8r
.	16g/	.	.	.	.	.	.
.	16a/	.	8r	.	8r	8r	8r
.	16b-/JJ	.	.	.	.	.	.
=114	=114	=114	=114	=114	=114	=114	=114
4.r	8cc\L	.	8a/	.	8f\	8F\	8F\
.	8f\	.	8r	.	8r	8r	8r
.	8ff\J	.	8r	.	8r	8r	8r
=115	=115	=115	=115	=115	=115	=115	=115
!	!	!	!	!	!	!	! **Bnum:._n
4.r	8dd\	.	8bn\	.	8d\	8G\	8G\
.	16g/LL	.	8r	.	8r	8r	8r
.	16a/	.	.	.	.	.	.
.	16bn/	.	8r	.	8r	8r	8r
.	16cc/JJ	.	.	.	.	.	.
=116	=116	=116	=116	=116	=116	=116	=116
!	!	!	!	!	!	!	! **Bnum:._n
4.r	8dd\L	.	8g/	.	8d\	8Bn\	8Bn\
.	8g\	.	8r	.	8r	8r	8r
.	8gg\J	.	8r	.	8r	8r	8r
=117	=117	=117	=117	=117	=117	=117	=117
4.r	8ee\L	.	8cc\	.	8g\	8c\	8c\
.	16a\L	.	8r	.	8r	8r	8r
.	16bn\	.	.	.	.	.	.
.	16cc\	.	8r	.	8r	8r	8r
.	16dd\JJ	.	.	.	.	.	.
=118	=118	=118	=118	=118	=118	=118	=118
!	!	!	!	!	!	!	! **Bnum:._#
4.r	8ee\L	.	8cc#\	.	8a\	8A\	8A\
.	8a\	.	8r	.	8r	8r	8r
.	8aa\J	.	8r	.	8r	8r	8r
=119	=119	=119	=119	=119	=119	=119	=119
4.r	[4.ff\	.	8r	.	8a\	8D\L	8d\
.	.	.	16aa\LL	.	8r	16f\L	8r
.	.	.	16gg\	.	.	16e\	.
.	.	.	16ff\	.	8r	16d\	8r
.	.	.	16ee\JJ	.	.	16c\JJ	.
=120	=120	=120	=120	=120	=120	=120	=120
4.r	4.ff\_	.	8dd\L	.	8g\	8Bn\L	8G\
.	.	.	16ff\L	.	8r	16d\L	8r
.	.	.	16ee\	.	.	16c\	.
.	.	.	16dd\	.	8r	16B\	8r
.	.	.	16cc\JJ	.	.	16A\JJ	.
=121	=121	=121	=121	=121	=121	=121	=121
4.r	4.ff\_	.	8bn/L	.	8d\	8G\L	8G\
.	.	.	16a/L	.	8r	16F\L	8r
.	.	.	16g/	.	.	16E\	.
.	.	.	16f/	.	8r	16D\	8r
.	.	.	16e/JJ	.	.	16C\JJ	.
=122	=122	=122	=122	=122	=122	=122	=122
4.r	4.ff\_	.	8d/L	.	8g\	8BBn/L	8G\
.	.	.	16f/L	.	8r	16D/L	8r
.	.	.	16e/	.	.	16C/	.
.	.	.	16d/	.	8r	16BB/	8r
.	.	.	16c/JJ	.	.	16AA/JJ	.
=123	=123	=123	=123	=123	=123	=123	=123
4.r	8ff\]	.	8Bn/L	.	4d\	4GG/	4G\
.	4ee\	.	8G/	.	.	.	.
.	.	.	8cc/J	.	8c\	8AA/	8A\
=124	=124	=124	=124	=124	=124	=124	=124
4.r	8ee\	.	8cc\	.	8a\L	8FF/	8F\L
.	4dd\	.	4bn\	.	8d\	4GG/	8G\
.	.	.	.	.	8g\J	.	8GG\J
=125	=125	=125	=125	=125	=125	=125	=125
8r	4ee\	.	4cc\	.	4g\	4C/	4C/
16cc\LL	.	.	.	.	.	.	.
16dd\	.	.	.	.	.	.	.
16ee\	8r	.	8r	.	8r	8D\	8r
16ff\JJ	.	.	.	.	.	.	.
=126	=126	=126	=126	=126	=126	=126	=126
8gg\L	4.r	.	4.r	.	4.r	4E\	4.r
8cc\	.	.	.	.	.	.	.
8ccc\J	.	.	.	.	.	8F\	.
=127	=127	=127	=127	=127	=127	=127	=127
8bbn\	4.r	.	4.r	.	4.r	4G\	4.r
4aa\	.	.	.	.	.	.	.
.	.	.	.	.	.	8F\	.
=128	=128	=128	=128	=128	=128	=128	=128
4gg\	4.r	.	4.r	.	4.r	4E\	4.r
8ff\	.	.	.	.	.	8D\	.
=129	=129	=129	=129	=129	=129	=129	=129
8ee\	4.r	.	4.r	.	4.r	4C/	4.r
4dd\	.	.	.	.	.	.	.
.	.	.	.	.	.	8BB-/	.
=130	=130	=130	=130	=130	=130	=130	=130
16cc\LL	4.r	.	4.r	.	4.r	4AA/	4.r
16b-\	.	.	.	.	.	.	.
16cc\	.	.	.	.	.	.	.
16cc\	.	.	.	.	.	.	.
16dd\	.	.	.	.	.	8GG/	.
16ee\JJ	.	.	.	.	.	.	.
=131	=131	=131	=131	=131	=131	=131	=131
16ff\LL	4.r	.	4.r	.	4.r	8FF/L	4.r
16gg\JJ	.	.	.	.	.	.	.
8.ee\L	.	.	.	.	.	8C/	.
.	.	.	.	.	.	8CC/J	.
16ff\Jk	.	.	.	.	.	.	.
=132	=132	=132	=132	=132	=132	=132	=132
4ff\	8r	.	4.r	.	4.r	8FF\L	4F\
.	16f/LL	.	.	.	.	8F\	.
.	16g/	.	.	.	.	.	.
8r	16a/	.	.	.	.	8G\J	8G\
.	16b-/JJ	.	.	.	.	.	.
=133	=133	=133	=133	=133	=133	=133	=133
4.r	8cc\L	.	8ff\	.	8c\	4A\	4A\
.	8f\	.	8r	.	8r	.	.
.	8ff\J	.	8r	.	8r	8B-\	8B-\
=134	=134	=134	=134	=134	=134	=134	=134
4.r	8ee\	.	8gg\	.	8c\	4c\	4c\
.	4dd\	.	8r	.	8r	.	.
.	.	.	8r	.	8r	8B-\	8B-\
=135	=135	=135	=135	=135	=135	=135	=135
4.r	4cc\	.	8ff\	.	8c\	4A\	4A\
.	.	.	8r	.	8r	.	.
.	8b-\	.	8r	.	8r	8G\	8G\
=136	=136	=136	=136	=136	=136	=136	=136
4.r	8a/	.	8cc\	.	8c\	4F\	4F\
.	4g/	.	8r	.	8r	.	.
.	.	.	8r	.	8r	8E\	8E\
=137	=137	=137	=137	=137	=137	=137	=137
4.r	16f/LL	.	8b-\	.	8d\	4D\	4D\
.	16e/	.	.	.	.	.	.
.	16f/	.	8r	.	8r	.	.
.	16g/	.	.	.	.	.	.
.	16a/	.	8r	.	8r	8r	8r
.	16b-/JJ	.	.	.	.	.	.
=138	=138	=138	=138	=138	=138	=138	=138
4.r	16cc\LL	.	16a\LL	.	8e\L	16C/LL	16C/LL
.	16dd\JJ	.	16ee\JJ	.	.	16BB-/JJ	16BB-/JJ
.	8.g/L	.	8.ee\L	.	8c\	8C/L	8C/L
.	.	.	.	.	8c\J	8CC/J	8CC/J
.	16a/Jk	.	16ff\Jk	.	.	.	.
=139	=139	=139	=139	=139	=139	=139	=139
8r	4a/	.	4ff\	.	4c\	8FF/	8FF/
16f/LL	.	.	.	.	.	8r	8r
16g/	.	.	.	.	.	.	.
16a/	8r	.	8r	.	8r	8r	8r
16b-/JJ	.	.	.	.	.	.	.
=140	=140	=140	=140	=140	=140	=140	=140
8cc\L	4.r	.	4.r	.	4.r	8F\	4.r
8f\	.	.	.	.	.	8r	.
8ff\J	.	.	.	.	.	8r	.
=141	=141	=141	=141	=141	=141	=141	=141
4ee\	8r	.	4.r	.	4.r	8c\	8c\
.	16c/LL	.	.	.	.	8r	8r
.	16d/	.	.	.	.	.	.
8r	16e/	.	.	.	.	8r	8r
.	16f/JJ	.	.	.	.	.	.
=142	=142	=142	=142	=142	=142	=142	=142
4.r	8g/L	.	8e/	.	8c/	8C/	8C/
.	8c/	.	8r	.	8r	8r	8r
.	8cc/J	.	8r	.	8r	8r	8r
=143	=143	=143	=143	=143	=143	=143	=143
8r	4a/	.	8f/	.	8c\	8F\	8F\
16f/LL	.	.	8r	.	8r	8r	8r
16g/	.	.	.	.	.	.	.
16a/	8r	.	8r	.	8r	8r	8r
16b-/JJ	.	.	.	.	.	.	.
=144	=144	=144	=144	=144	=144	=144	=144
8cc\L	4.r	.	4.r	.	4.r	8A\	4.r
8f\	.	.	.	.	.	8r	.
8ff\J	.	.	.	.	.	8r	.
=145	=145	=145	=145	=145	=145	=145	=145
8dd\	4.r	.	4.r	.	4.r	8B-\	4.r
16g/LL	.	.	.	.	.	8r	.
16a/	.	.	.	.	.	.	.
16b-/	.	.	.	.	.	8r	.
16cc/JJ	.	.	.	.	.	.	.
=146	=146	=146	=146	=146	=146	=146	=146
8dd\L	4.r	.	4.r	.	4.r	8Bn\	4.r
8g\	.	.	.	.	.	8r	.
8gg\J	.	.	.	.	.	8r	.
=147	=147	=147	=147	=147	=147	=147	=147
8ee\	4.r	.	4.r	.	4.r	8c\	4.r
16a\LL	.	.	.	.	.	8r	.
16b-\	.	.	.	.	.	.	.
16cc\	.	.	.	.	.	8r	.
16dd\JJ	.	.	.	.	.	.	.
=148	=148	=148	=148	=148	=148	=148	=148
8ee\L	4.r	.	4.r	.	4.r	8c#\	4.r
8a\	.	.	.	.	.	8r	.
8aa\J	.	.	.	.	.	8r	.
=149	=149	=149	=149	=149	=149	=149	=149
8ff\	4.r	.	4.r	.	4.r	8d\	4.r
16b-\LL	.	.	.	.	.	8r	.
16cc\	.	.	.	.	.	.	.
16dd\	.	.	.	.	.	8r	.
16ee\JJ	.	.	.	.	.	.	.
=150	=150	=150	=150	=150	=150	=150	=150
8ff\L	4.r	.	4.r	.	4.r	8D\	4.r
8b-\	.	.	.	.	.	8r	.
8bb-\J	.	.	.	.	.	8r	.
=151	=151	=151	=151	=151	=151	=151	=151
8gg\	4.r	.	4.r	.	4.r	8E\	4.r
16cc\LL	.	.	.	.	.	8r	.
16dd\	.	.	.	.	.	.	.
16ee\	.	.	.	.	.	8r	.
16ff\JJ	.	.	.	.	.	.	.
=152	=152	=152	=152	=152	=152	=152	=152
8gg\L	4.r	.	4.r	.	4.r	8C/	4.r
8cc\	.	.	.	.	.	8r	.
8ccc\J	.	.	.	.	.	8r	.
=153	=153	=153	=153	=153	=153	=153	=153
8aa\	4.r	.	4.r	.	4.r	8F\	4.r
16bb-\LL	.	.	.	.	.	8r	.
16aa\	.	.	.	.	.	.	.
16gg\	.	.	.	.	.	8r	.
16ff\JJ	.	.	.	.	.	.	.
=154	=154	=154	=154	=154	=154	=154	=154
8ee\	4.r	.	4.r	.	4.r	8C/	4.r
16gg\LL	.	.	.	.	.	8r	.
16ff\	.	.	.	.	.	.	.
16ee\	.	.	.	.	.	8r	.
16dd\JJ	.	.	.	.	.	.	.
=155	=155	=155	=155	=155	=155	=155	=155
8cc\	4.r	.	4.r	.	4.r	8C/	4.r
16b-/LL	.	.	.	.	.	8r	.
16a/	.	.	.	.	.	.	.
16g/	.	.	.	.	.	8r	.
16f/JJ	.	.	.	.	.	.	.
=156	=156	=156	=156	=156	=156	=156	=156
8e/	4.r	.	4.r	.	4.r	8C/	4.r
16g/LL	.	.	.	.	.	8r	.
16f/	.	.	.	.	.	.	.
16e/	.	.	.	.	.	8r	.
16d/JJ	.	.	.	.	.	.	.
=157	=157	=157	=157	=157	=157	=157	=157
4c/	4.r	.	4.r	.	4.r	4C/	4.r
8ff\	.	.	.	.	.	8AA/	.
=158	=158	=158	=158	=158	=158	=158	=158
8ff\	4.r	.	4.r	.	4.r	8BB-/L	4.r
4ee\	.	.	.	.	.	8C/	.
.	.	.	.	.	.	8CC/J	.
=159	=159	=159	=159	=159	=159	=159	=159
4ff\	8r	.	4.r	.	4.r	4FF/	4.r
.	16f/LL	.	.	.	.	.	.
.	16g/	.	.	.	.	.	.
8r	16a/	.	.	.	.	8r	.
.	16b-/JJ	.	.	.	.	.	.
=160	=160	=160	=160	=160	=160	=160	=160
4.r	8cc\L	.	8a/	.	8f\	8F\	8F\
.	8f\	.	8r	.	8r	8r	8r
.	8ff\J	.	8r	.	8r	8r	8r
=161	=161	=161	=161	=161	=161	=161	=161
4.r	8dd\	.	8b-\	.	8f\	8B-\	8B-\
.	16g/LL	.	8r	.	8r	8r	8r
.	16a/	.	.	.	.	.	.
.	16b-/	.	8r	.	8r	8r	8r
.	16cc/JJ	.	.	.	.	.	.
=162	=162	=162	=162	=162	=162	=162	=162
!	!	!	!	!	!	!	! **Bnum:._n
4.r	8dd\L	.	8bn\	.	8g\	8G\	8G\
.	8g\	.	8r	.	8r	8r	8r
.	8gg\J	.	8r	.	8r	8r	8r
=163	=163	=163	=163	=163	=163	=163	=163
4.r	8ee\	.	8cc\	.	8g\	8c\	8c\
.	16a/LL	.	8r	.	8r	8r	8r
.	16b-/	.	.	.	.	.	.
.	16cc/	.	8r	.	8r	8r	8r
.	16dd/JJ	.	.	.	.	.	.
=164	=164	=164	=164	=164	=164	=164	=164
!	!	!	!	!	!	!	! **Bnum:._#
4.r	8ee\L	.	8cc#\	.	8a\	8A\	8A\
.	8a\	.	8r	.	8r	8r	8r
.	8aa\J	.	8r	.	8r	8r	8r
=165	=165	=165	=165	=165	=165	=165	=165
4.r	8ff\	.	8dd\	.	8a\	8d\	8d\
.	16b-\LL	.	8r	.	8r	8r	8r
.	16cc\	.	.	.	.	.	.
.	16dd\	.	8r	.	8r	8r	8r
.	16ee\JJ	.	.	.	.	.	.
=166	=166	=166	=166	=166	=166	=166	=166
!	!	!	!	!	!	!	! **Bnum:._6
4.r	8ff\L	.	8dd\	.	8b-\	8D\	8D\
.	8b-\	.	8r	.	8r	8r	8r
.	8bb-\J	.	8r	.	8r	8r	8r
=167	=167	=167	=167	=167	=167	=167	=167
4.r	8gg\L	.	8ee\	.	8cc\	8C/	8C/
.	16cc\L	.	8r	.	8r	8r	8r
.	16dd\	.	.	.	.	.	.
.	16ee\	.	8r	.	8r	8r	8r
.	16ff\JJ	.	.	.	.	.	.
=168	=168	=168	=168	=168	=168	=168	=168
4.r	8gg\L	.	8ee\	.	8e\	8C/	8C/
.	8cc\	.	8r	.	8r	8r	8r
.	8ccc\J	.	8r	.	8r	8r	8r
=169	=169	=169	=169	=169	=169	=169	=169
4.r	8aa\L	.	8ff\L	.	8c\	8F\	8F\
.	16bb-\L	.	16gg\L	.	8r	8r	8r
.	16aa\	.	16ff\	.	.	.	.
.	16gg\	.	16ee\	.	8r	8r	8r
.	16ff\JJ	.	16dd\JJ	.	.	.	.
=170	=170	=170	=170	=170	=170	=170	=170
4.r	8ee\L	.	8cc/L	.	8G/	8c\	8c\
.	16gg\L	.	16b-/L	.	8r	8r	8r
.	16ff\	.	16a/	.	.	.	.
.	16ee\	.	16g/	.	8r	8r	8r
.	16dd\JJ	.	16f/JJ	.	.	.	.
=171	=171	=171	=171	=171	=171	=171	=171
4.r	8cc/L	.	8e/L	.	8g\	8C/	8C/
.	16b-/L	.	16dd/L	.	8r	8r	8r
.	16a/	.	16cc/	.	.	.	.
.	16g/	.	16b-/	.	8r	8r	8r
.	16f/JJ	.	16a/JJ	.	.	.	.
=172	=172	=172	=172	=172	=172	=172	=172
4.r	8e/L	.	8g/L	.	8g\	8C/	8C/
.	16g/L	.	16b-/L	.	8r	8r	8r
.	16f/	.	16a/	.	.	.	.
.	16e/	.	16g/	.	8r	8r	8r
.	16d/JJ	.	16f/JJ	.	.	.	.
=173	=173	=173	=173	=173	=173	=173	=173
4.r	4c/	.	8e/L	.	4g\	8C/	4C/
.	.	.	8c/	.	.	4A\	.
.	8ff\	.	8cc/J	.	8f\	.	8A\
=174	=174	=174	=174	=174	=174	=174	=174
4.r	8ff\	.	8dd\	.	8d\L	8B-\L	8B-\L
.	4ee\	.	4g/	.	8e\	8c\	8c\
.	.	.	.	.	8c\J	8C\J	8C\J
=175	=175	=175	=175	=175	=175	=175	=175
8r	4ff\	.	4a/	.	8c\	16F\LL	8F\
.	.	.	.	.	.	16E\	.
8ff\L	.	.	.	.	8r	16F\	8r
.	.	.	.	.	.	16G\	.
8f\J	8r	.	8r	.	8r	16A\	8r
.	.	.	.	.	.	16F\JJ	.
=176	=176	=176	=176	=176	=176	=176	=176
8f/	8r	.	8r	.	8d\	16B-\LL	8B-\
.	.	.	.	.	.	16A\	.
8r	8dd/L	.	8b-/L	.	8r	16B-\	8r
.	.	.	.	.	.	16c\	.
8r	8d/J	.	8B-/J	.	8r	16d\	8r
.	.	.	.	.	.	16B-\JJ	.
=177	=177	=177	=177	=177	=177	=177	=177
8r	8d/	.	8B-/	.	8d\	16G\LL	8G\
.	.	.	.	.	.	16F\	.
8gg\L	8r	.	8r	.	8r	16G\	8r
.	.	.	.	.	.	16A\	.
8g\J	8r	.	8r	.	8r	16B-\	8r
.	.	.	.	.	.	16G\JJ	.
=178	=178	=178	=178	=178	=178	=178	=178
8g/	8r	.	8r	.	8e\	16c\LL	8c\
.	.	.	.	.	.	16B-\	.
8r	8ee/L	.	8cc/L	.	8r	16c\	8r
.	.	.	.	.	.	16d\	.
8r	8e/J	.	8c/J	.	8r	16e\	8r
.	.	.	.	.	.	16c\JJ	.
=179	=179	=179	=179	=179	=179	=179	=179
8r	8e/	.	8c/	.	8e\	16A\LL	8A\
.	.	.	.	.	.	16G\	.
8aa\L	8r	.	8r	.	8r	16A\	8r
.	.	.	.	.	.	16B-\	.
8a\J	8r	.	8r	.	8r	16c\	8r
.	.	.	.	.	.	16A\JJ	.
=180	=180	=180	=180	=180	=180	=180	=180
8a/	8r	.	8r	.	8f\	16d\LL	8d\
.	.	.	.	.	.	16c\	.
8r	8ff\L	.	8dd/L	.	8r	16d\	8r
.	.	.	.	.	.	16e\	.
8r	8f\J	.	8d/J	.	8r	16f\	8r
.	.	.	.	.	.	16d\JJ	.
=181	=181	=181	=181	=181	=181	=181	=181
8r	8f/	.	8d/	.	8f\	16B-\LL	8B-\
.	.	.	.	.	.	16A\	.
8bb-\L	8r	.	8r	.	8r	16B-\	8r
.	.	.	.	.	.	16c\	.
8b-\J	8r	.	8r	.	8r	16d\	8r
.	.	.	.	.	.	16B-\JJ	.
=182	=182	=182	=182	=182	=182	=182	=182
4b-\	4g/	.	8e/L	.	4e\	4c\	4c\
.	.	.	8c/	.	.	.	.
8a/	8f/	.	8d/J	.	8d\	8d\	8d\
=183	=183	=183	=183	=183	=183	=183	=183
8dd\	8dd\	.	8f/	.	8d\L	8B-\L	8B-\L
4g/	4g/	.	4e/	.	8e\	8c\	8c\
.	.	.	.	.	8c\J	8C\J	8C\J
=184	=184	=184	=184	=184	=184	=184	=184
4f/	4f/	.	4f/	.	4c;\	4.F;\	4F\
8r	8r	.	8r	.	8r	.	8r
==|!	==|!	==|!	==|!	==|!	==|!	==|!	==|!
*-	*-	*-	*-	*-	*-	*-	*-
!!!RWG: Key is interpreted using the Humdrum key tool.
!!!AFT: stage2
!!!END: 1998/05/22/
!!format changes:
!!content changes:
!!public access: complete
!!!KEY: 2630549541
!!!EMD: Converted from MuseData to Humdrum Dec 16, 2000, by Andreas Kornstaedt using muse2kern.
